app/img/icons/avatar.svg

<svg width="120" height="120" viewBox="0 0 120 120" fill="none" xmlns="http://www.w3.org/2000/svg">
<circle cx="60" cy="60" r="60" fill="#E9E8E8"/>
<path d="M60.3017 54.7273C60.1134 54.7084 59.8873 54.7084 59.6801 54.7273C55.1969 54.5764 51.6367 50.899 51.6367 46.3731C51.6367 41.7528 55.3664 38 60.0004 38C64.6154 38 68.364 41.7528 68.364 46.3731C68.3452 50.899 64.785 54.5764 60.3017 54.7273Z" fill="#B3B3B3"/>
<path d="M47.7251 66.4191C41.7896 70.3475 41.7896 76.7493 47.7251 80.6535C54.4699 85.1154 65.5315 85.1154 72.2764 80.6535C78.2119 76.7251 78.2119 70.3232 72.2764 66.4191C65.556 61.9814 54.4944 61.9814 47.7251 66.4191Z" fill="#B3B3B3"/>
</svg>

<svg width="120" height="120" fill="none" xmlns="http://www.w3.org/2000/svg"><circle cx="60" cy="60" r="60" fill="#E9E8E8"/><path d="M60.302 54.727a3.413 3.413 0 0 0-.622 0c-4.483-.15-8.043-3.828-8.043-8.354 0-4.62 3.73-8.373 8.363-8.373 4.615 0 8.364 3.753 8.364 8.373-.019 4.526-3.579 8.203-8.062 8.354ZM47.725 66.42c-5.935 3.927-5.935 10.33 0 14.233 6.745 4.462 17.806 4.462 24.551 0 5.936-3.928 5.936-10.33 0-14.234-6.72-4.438-17.782-4.438-24.55 0Z" fill="#B3B3B3"/></svg>
